svg/set/SS1/T.svg

<?xml version="1.0" encoding="UTF-8"?>
<svg id="Layer_2" data-name="Layer 2" xmlns="http://www.w3.org/2000/svg" xmlns:xlink="http://www.w3.org/1999/xlink" viewBox="0 0 266 270.5">
  <defs>
    <style>
      .cls-1 {
        fill: url(#linear-gradient);
      }

      .cls-1, .cls-2 {
        stroke-width: 0px;
      }

      .cls-2 {
        fill: #fff;
      }
    </style>
    <linearGradient id="linear-gradient" x1="369" y1="82.7" x2="603" y2="82.7" gradientTransform="translate(-353 217) scale(1 -1)" gradientUnits="userSpaceOnUse">
      <stop offset="0" stop-color="#612c75"/>
      <stop offset=".08" stop-color="#784788"/>
      <stop offset=".2" stop-color="#976aa1"/>
      <stop offset=".31" stop-color="#ad84b4"/>
      <stop offset=".42" stop-color="#ba93bf"/>
      <stop offset=".5" stop-color="#bf99c3"/>
      <stop offset=".58" stop-color="#ba93bf"/>
      <stop offset=".69" stop-color="#ad84b4"/>
      <stop offset=".8" stop-color="#976aa1"/>
      <stop offset=".92" stop-color="#784788"/>
      <stop offset="1" stop-color="#612c75"/>
    </linearGradient>
  </defs>
  <g id="svg2">
    <path id="p1" class="cls-2" d="M133,0c-14.29,0-27.53,4.47-38.41,12.09C74.9,7.17,50.94,2.45,30.81,2.31c-7.86-.05-15.13.58-21.31,2.19v14s-1.51-1.5-9.5-1.5v212l115,41.5h36l115-41.5V17c-7.99,0-9.5,1.5-9.5,1.5V4.5c-22.01-5.71-57.74.74-85.12,7.59-10.87-7.61-24.1-12.09-38.38-12.09Z"/>
    <path id="p2" class="cls-1" d="M27.38,8.59c-3.8,0-7.61.12-11.38.41v213c96.41,2.41,117,38,117,38,0,0,20.59-35.59,117-38V9c-26.96-2.03-55.97,4.02-72.16,8.22,13.61,12.26,22.16,30.02,22.16,49.78,0,24.59-13.25,46.1-33,57.75v19.5c8.93,9.59,14.47,22.91,14.47,37.66,0,20.14-10.34,37.64-25.53,46.56,4.93-7.06,7.91-16.41,7.91-26.66,0-17.47-8.72-32.32-20.84-37.69v-55.81c18.65-4.5,32.5-21.28,32.5-41.31,0-23.47-19.03-42.5-42.5-42.5s-42.5,19.03-42.5,42.5c0,20.03,13.85,36.82,32.5,41.31v55.81c-12.12,5.37-20.84,20.21-20.84,37.69,0,10.25,2.98,19.6,7.91,26.66-15.19-8.92-25.53-26.42-25.53-46.56,0-14.75,5.54-28.07,14.47-37.66v-19.5c-19.75-11.65-33-33.16-33-57.75,0-19.75,8.53-37.52,22.12-49.78-13.93-3.62-37.33-8.59-60.75-8.62ZM133,51c8.84,0,16,7.16,16,16s-7.16,16-16,16-16-7.16-16-16,7.16-16,16-16Z"/>
  </g>
</svg>

<?xml version="1.0" encoding="UTF-8" standalone="no"?>
<svg
   id="Layer_2"
   data-name="Layer 2"
   viewBox="0 0 266 270.5"
   version="1.1"
   width="266"
   height="270.5"
   xmlns="http://www.w3.org/2000/svg"
   xmlns:svg="http://www.w3.org/2000/svg">
  <defs
     id="defs11">
    <style
       id="style1">
      .cls-1 {
        fill: url(#linear-gradient);
      }

      .cls-1, .cls-2 {
        stroke-width: 0px;
      }

      .cls-2 {
        fill: #fff;
      }
    </style>
    <linearGradient
       id="linear-gradient"
       x1="369"
       y1="82.699997"
       x2="603"
       y2="82.699997"
       gradientTransform="matrix(1,0,0,-1,-353,217)"
       gradientUnits="userSpaceOnUse">
      <stop
         offset="0"
         stop-color="#612c75"
         id="stop1" />
      <stop
         offset=".08"
         stop-color="#784788"
         id="stop2" />
      <stop
         offset=".2"
         stop-color="#976aa1"
         id="stop3" />
      <stop
         offset=".31"
         stop-color="#ad84b4"
         id="stop4" />
      <stop
         offset=".42"
         stop-color="#ba93bf"
         id="stop5" />
      <stop
         offset=".5"
         stop-color="#bf99c3"
         id="stop6" />
      <stop
         offset=".58"
         stop-color="#ba93bf"
         id="stop7" />
      <stop
         offset=".69"
         stop-color="#ad84b4"
         id="stop8" />
      <stop
         offset=".8"
         stop-color="#976aa1"
         id="stop9" />
      <stop
         offset=".92"
         stop-color="#784788"
         id="stop10" />
      <stop
         offset="1"
         stop-color="#612c75"
         id="stop11" />
    </linearGradient>
  </defs>
  <g
     id="svg2">
    <path
       id="p1"
       class="cls-2"
       d="M 133,0 C 118.71,0 105.47,4.47 94.59,12.09 74.9,7.17 50.94,2.45 30.81,2.31 22.95,2.26 15.68,2.89 9.5,4.5 v 14 C 9.5,18.5 7.99,17 0,17 v 212 l 115,41.5 h 36 L 266,229 V 17 c -7.99,0 -9.5,1.5 -9.5,1.5 V 4.5 C 234.49,-1.21 198.76,5.24 171.38,12.09 160.51,4.48 147.28,0 133,0 Z" />
    <path
       id="p2"
       class="cls-1"
       d="M 27.38,8.59 C 23.58,8.59 19.77,8.71 16,9 v 213 c 96.41,2.41 117,38 117,38 0,0 20.59,-35.59 117,-38 V 9 C 223.04,6.97 194.03,13.02 177.84,17.22 191.45,29.48 200,47.24 200,67 c 0,24.59 -13.25,46.1 -33,57.75 v 19.5 c 8.93,9.59 14.47,22.91 14.47,37.66 0,20.14 -10.34,37.64 -25.53,46.56 4.93,-7.06 7.91,-16.41 7.91,-26.66 0,-17.47 -8.72,-32.32 -20.84,-37.69 v -55.81 c 18.65,-4.5 32.5,-21.28 32.5,-41.31 0,-23.47 -19.03,-42.5 -42.5,-42.5 -23.47,0 -42.5,19.03 -42.5,42.5 0,20.03 13.85,36.82 32.5,41.31 v 55.81 c -12.12,5.37 -20.84,20.21 -20.84,37.69 0,10.25 2.98,19.6 7.91,26.66 -15.19,-8.92 -25.53,-26.42 -25.53,-46.56 0,-14.75 5.54,-28.07 14.47,-37.66 v -19.5 C 79.27,113.1 66.02,91.59 66.02,67 66.02,47.25 74.55,29.48 88.14,17.22 74.21,13.6 50.81,8.63 27.39,8.6 Z M 133,51 c 8.84,0 16,7.16 16,16 0,8.84 -7.16,16 -16,16 -8.84,0 -16,-7.16 -16,-16 0,-8.84 7.16,-16 16,-16 z"
       style="fill:url(#linear-gradient)" />
  </g>
</svg>
